X: 1
T:Untitled Strathspey #3
M:4/4
L:1/8
S:Northern Fiddler 192(c)
S:Danny O'Donnell
Z:posted by Ted Hastings 3/98
K:F#m
C|FGAB c<F Ac|B^dec B/2A/2G/2F/2 EG|FGAB c<F Ac|Be c/2B/2A/2G/2 A<F F:||
!
g|agfc fgaf|faBe GBeg|abga fgaf|ec c/2B/2A/2G/2 A<F Fg|!
agfc fgaf|bg e<B e/2f/2g/2a/2 bg|accB ceBG|ec c/2B/2A/2G/2 A<G F||
